X: 1
T:Keeping up with Amy
M:6/8
L:1/8
C:Stephen McNally
S: 2001
K:AMix
|:a2a c>Ad|e>fe c>Ad|a2a c>Ad|B>GB d>gf|
a2a c>Ad|e>fe c>Ad|B>GB d>gf|d>gf d>gf:|!
|:c>Ad e>fe|c>Ad c>BA|c>Ad e>fe|B>GB d>gf|
c>Ad e>fe|c>Ad c>BA|B>GB d>gf|d>gf d>gf:|
% Output from ABC2Win  Version 2.1 i on 23/11/2004
